icons/Volume.svg

<svg width="24" height="24" viewBox="0 0 24 24" fill="none" xmlns="http://www.w3.org/2000/svg">
<path fill-rule="evenodd" clip-rule="evenodd" d="M7.79604,9.28584c-0.32326,0.29839 -0.74706,0.46409 -1.18699,0.46409h-2.60902c-0.13807,0 -0.25,0.11193 -0.25,0.25v4.00007c0,0.138 0.11193,0.25 0.25,0.25h2.60906c0.43991,0.0001 0.86369,0.1657 1.18694,0.4641l4.53447,4.1857c0.1601,0.1478 0.4195,0.0342 0.4195,-0.1837v-13.43218c0,-0.21795 -0.2594,-0.33153 -0.4195,-0.18371zM14.25,18.7161c0,1.5255 -1.816,2.3206 -2.937,1.2859l-4.53439,-4.1857c-0.04618,-0.0426 -0.10672,-0.0663 -0.16956,-0.0663h-2.60907c-0.96648,-0.0001 -1.74995,-0.7836 -1.74995,-1.75v-4.00007c0,-0.9665 0.78351,-1.75 1.75,-1.75h2.60902c0.06285,0 0.12339,-0.02367 0.16957,-0.0663l4.53438,-4.18562c1.121,-1.03477 2.937,-0.23967 2.937,1.28591zM18.4195,6.51992c0.2928,-0.2929 0.7677,-0.2929 1.0606,0c0.7197,0.71965 1.2905,1.57401 1.68,2.51428c0.3895,0.94027 0.5899,1.9481 0.5899,2.9658c0,1.0177 -0.2004,2.0255 -0.5899,2.9658c-0.3895,0.9403 -0.9603,1.7946 -1.68,2.5143c-0.2929,0.2929 -0.7678,0.2929 -1.0607,0c-0.2928,-0.2929 -0.2928,-0.7678 0,-1.0607c0.5804,-0.5804 1.0408,-1.2693 1.3549,-2.0276c0.3141,-0.7583 0.4757,-1.571 0.4757,-2.3918c0,-0.8208 -0.1616,-1.6335 -0.4757,-2.39178c-0.3141,-0.75828 -0.7745,-1.44728 -1.3548,-2.02764c-0.2929,-0.2929 -0.2929,-0.76777 0,-1.06066zM16.2981,8.64124c0.2929,-0.2929 0.7678,-0.2929 1.0607,0c0.4411,0.44108 0.791,0.96471 1.0297,1.54096c0.2387,0.5763 0.3615,1.194 0.3615,1.8178c0,0.6238 -0.1228,1.2414 -0.3615,1.8177c-0.2387,0.5763 -0.5886,1.1 -1.0297,1.5411c-0.2929,0.2928 -0.7678,0.2928 -1.0607,0c-0.2929,-0.2929 -0.2929,-0.7678 0,-1.0607c0.3018,-0.3018 0.5412,-0.6601 0.7045,-1.0544c0.1634,-0.3943 0.2474,-0.8169 0.2474,-1.2437c0,-0.4268 -0.084,-0.8494 -0.2474,-1.2437c-0.1633,-0.3943 -0.4027,-0.7526 -0.7045,-1.0544c-0.2929,-0.2929 -0.2929,-0.76777 0,-1.06066z" fill="#002B51"/>
</svg>

<svg width="24" height="24" viewBox="0 0 24 24" fill="none" xmlns="http://www.w3.org/2000/svg">
<path fill-rule="evenodd" clip-rule="evenodd" d="M12.3305 5.10021C12.4906 4.95239 12.75 5.06597 12.75 5.28392V18.7161C12.75 18.934 12.4906 19.0476 12.3305 18.8998L7.79603 14.7141C7.47278 14.4157 7.049 14.2501 6.60909 14.25L4.00003 14.25C3.86196 14.25 3.75003 14.138 3.75003 14V9.99993C3.75003 9.86186 3.86196 9.74993 4.00003 9.74993H6.60905C7.04898 9.74993 7.47278 9.58423 7.79604 9.28584L12.3305 5.10021ZM14.25 5.28392C14.25 3.75834 12.434 2.96324 11.313 3.99801L6.77862 8.18363C6.73244 8.22626 6.6719 8.24993 6.60905 8.24993H4.00003C3.03354 8.24993 2.25003 9.03343 2.25003 9.99993V14C2.25003 14.9664 3.0335 15.7499 3.99998 15.75L6.60905 15.75C6.67189 15.75 6.73243 15.7737 6.77861 15.8163L11.313 20.002C12.434 21.0367 14.25 20.2416 14.25 18.7161V5.28392ZM18.4195 6.51992C18.7123 6.22702 19.1872 6.22702 19.4801 6.51992C20.1998 7.23957 20.7706 8.09393 21.1601 9.0342C21.5496 9.97447 21.75 10.9823 21.75 12C21.75 13.0177 21.5496 14.0255 21.1601 14.9658C20.7706 15.9061 20.1998 16.7604 19.4801 17.4801C19.1872 17.773 18.7123 17.773 18.4194 17.4801C18.1266 17.1872 18.1266 16.7123 18.4194 16.4194C18.9998 15.839 19.4602 15.1501 19.7743 14.3918C20.0884 13.6335 20.25 12.8208 20.25 12C20.25 11.1792 20.0884 10.3665 19.7743 9.60822C19.4602 8.84994 18.9998 8.16094 18.4195 7.58058C18.1266 7.28768 18.1266 6.81281 18.4195 6.51992ZM16.2981 8.64124C16.591 8.34834 17.0659 8.34834 17.3588 8.64124C17.7999 9.08232 18.1498 9.60595 18.3885 10.1822C18.6272 10.7585 18.75 11.3762 18.75 12C18.75 12.6238 18.6272 13.2414 18.3885 13.8177C18.1498 14.394 17.7999 14.9177 17.3588 15.3588C17.0659 15.6516 16.591 15.6516 16.2981 15.3588C16.0052 15.0659 16.0052 14.591 16.2981 14.2981C16.5999 13.9963 16.8393 13.638 17.0026 13.2437C17.166 12.8494 17.25 12.4268 17.25 12C17.25 11.5732 17.166 11.1506 17.0026 10.7563C16.8393 10.362 16.5999 10.0037 16.2981 9.7019C16.0052 9.409 16.0052 8.93413 16.2981 8.64124Z" fill="#002B51"/>
</svg>
